!!!!SEGMENT: pl-wtm--r-730-28-m_moniuszko-stanislaw--trzech-budrysow.krn
!!!cenid: 18xx:1708
!!!COM: Moniuszko, Stanisław
!!!COM-rismid: pe30008351
!!!CDT: 1819/05/05-1872/06/04
!!!CNT: Polish
!!!OTL: Trzech Budrysów
!!!PDT:
!!!AGN: Secular
!!!SMS-siglum: PL-Wtm
!!!SMS-shelfmark: R 730/28/M
!!!SMS-shelfwork: W
!!!SMS-variant:
!!!SMS-altvar:
!!!NIFC-rismid: 1001099840
!!!URL-scan: http://repozytorium.nifc.pl/skany/pl-wtm-nut--r730m-1-43
!!!ONB-nifc: Skan 0031-0034, No. 780
!!!AIN: 1 forte 1 vox
!!!key:
**kern	**kern	**dynam	**kern	**text	**text	**text	**dynam
*>[A,B,B1,B,B1,B,B2,C,D,D,E]	*>[A,B,B1,B,B1,B,B2,C,D,D,E]	*	*>[A,B,B1,B,B1,B,B2,C,D,D,E]	*	*	*	*
*part2	*part2	*part2	*part1	*part1	*part1	*part1	*part1
*staff3	*staff2	*	*staff1	*staff1	*staff1	*staff1	*
*	*	*	*	*verse1	*verse2	*verse3	*
*Iforte	*Iforte	*	*Ivox	*	*	*	*
*I"Fortepian	*I"Fortepian	*	*I"[Voice]	*	*	*	*
*I'pf	*I'pf	*	*I'[V]	*	*	*	*
*clefF4	*clefG2	*	*clefG2	*	*	*	*
*k[b-e-]	*k[b-e-]	*	*k[b-e-]	*	*	*	*
*g:	*g:	*	*g:	*	*	*	*
*M4/4	*M4/4	*	*M4/4	*	*	*	*
*met(c)	*met(c)	*	*met(c)	*	*	*	*
=-	=-	=-	=-	=-	=-	=-	=-
*>A	*>A	*	*>A	*	*	*	*
!	!	!	!LO:TX:i:a:t=Moderato.	!	!	!	!
!	!	!	!LO:TX:a:t=P:problem=all\right&colon; global	!	!	!	!
4ryy	8.d/L	p	4r	.	.	.	.
.	16d/Jk	.	.	.	.	.	.
=1	=1	=1	=1	=1	=1	=1	=1
[>1B- [<1D [<1GG	4g/	.	1r	.	.	.	.
.	8.g/L	.	.	.	.	.	.
.	16g/Jk	.	.	.	.	.	.
.	8b-/	.	.	.	.	.	.
.	8r	.	.	.	.	.	.
.	8.d/L	.	.	.	.	.	.
.	16d/Jk	.	.	.	.	.	.
=2	=2	=2	=2	=2	=2	=2	=2
1B-] 1D_< 1GG_<	4g/	.	1r	.	.	.	.
.	8.g/L	.	.	.	.	.	.
.	16g/Jk	.	.	.	.	.	.
.	(<4b-/	.	.	.	.	.	.
.	8a/L	.	.	.	.	.	.
.	8g/J)	.	.	.	.	.	.
=3	=3	=3	=3	=3	=3	=3	=3
(>1c 1D_< 1GG_<	4f#X/	.	1r	.	.	.	.
.	8.a/L	.	.	.	.	.	.
.	16a/Jk	.	.	.	.	.	.
.	(<4d/	.	.	.	.	.	.
.	8e-/L	.	.	.	.	.	.
.	8f#/J)	.	.	.	.	.	.
=4	=4	=4	=4	=4	=4	=4	=4
*^	*	*	*	*	*	*	*
8B-/)	8D] 8GG\]	8g/	.	1r	.	.	.	.
(<8e-L 8E-/	8ryy	(>16ee-\LL	ff	.	.	.	.	.
.	.	16eee-\JJ	.	.	.	.	.	.
8d 8D/	4ryy	16dd\LL	.	.	.	.	.	.
.	.	16ddd\	.	.	.	.	.	.
8c#yJ 8C#X/	.	16cc#X\	.	.	.	.	.	.
.	.	16ccc#X\JJ	.	.	.	.	.	.
8B-L 8BB-/	2ryy	16b-\LL	.	.	.	.	.	.
.	.	16bb-\	.	.	.	.	.	.
8A 8AA/	.	16a\	.	.	.	.	.	.
.	.	16aa\JJ	.	.	.	.	.	.
8G 8GG/	.	16g\LL	.	.	.	.	.	.
.	.	16gg\	.	.	.	.	.	.
8F#XJ 8FF#y/	.	16f#X\	.	.	.	.	.	.
.	.	16ff#y\JJ	.	.	.	.	.	.
*v	*v	*	*	*	*	*	*	*
=5	=5	=5	=5	=5	=5	=5	=5
8E-L 8EE-/	16e-\LL	.	1r	.	.	.	.
.	16ee-\	.	.	.	.	.	.
8D 8DD/	16d\	.	.	.	.	.	.
.	16dd\JJ	.	.	.	.	.	.
8C#X 8CC#y/	16c#X\LL	.	.	.	.	.	.
.	16cc#y\	.	.	.	.	.	.
8BB-J 8BBB-/	16B-\	.	.	.	.	.	.
.	16b-\JJ	.	.	.	.	.	.
!	!LO:TX:t=P:problem=mixed beam	!	!	!	!	!	!
8AAL 8AAA/	16A</LL	.	.	.	.	.	.
.	16a\	.	.	.	.	.	.
8GG 8GGG/	16G</	.	.	.	.	.	.
.	16g\JJ	.	.	.	.	.	.
!	!LO:TX:t=P:problem=mixed beam	!	!	!	!	!	!
8FF#X 8FFF#y/	16F#X</LL	.	.	.	.	.	.
.	16f#y\	.	.	.	.	.	.
8EE-J 8EEE-/)	16E-</	.	.	.	.	.	.
.	16e-\JJ)	.	.	.	.	.	.
!!LO:LB:g=original
=6!|:	=6!|:	=6!|:	=6!|:	=6!|:	=6!|:	=6!|:	=6!|:
*>B	*>B	*	*>B	*	*	*	*
*8ba	*	*	*	*	*	*	*
!LO:TX:b:t=P:problem=przenośnik oktawowy na dole	!	!	!	!	!	!	!
8DD 8DDD\	8d 8D</	.	1r	.	.	.	.
*X8ba	*	*	*	*	*	*	*
8r	8r	.	.	.	.	.	.
4r	(<16cc/LL	.	.	.	.	.	.
.	16b-/	.	.	.	.	.	.
.	16a/	.	.	.	.	.	.
.	16g/JJ)	.	.	.	.	.	.
4r	8dd`</	.	.	.	.	.	.
.	8r	.	.	.	.	.	.
8.AL 8.D\	8.f#XL 8.c/	.	.	.	.	.	.
16AJk 16D\	16f#Jk 16c/	.	.	.	.	.	.
=7	=7	=7	=7	=7	=7	=7	=7
8G 8GG\	8g 8B-/	.	2r	.	.	.	.
8r	8r	.	.	.	.	.	.
8..GGL 8..GGG/	8..G/L	.	.	.	.	.	.
32GGJkk 32GGG/	32G/Jkk	.	.	.	.	.	.
4GG 4GGG/	4G/	.	4r	.	.	.	.
4r	4r	.	8d/	Sta-	Wyś-	Niech	.
.	.	.	8d/	-ry	-cie	za-	.
=8	=8	=8	=8	=8	=8	=8	=8
8D 8GG/	8g 8B-/	sf	4g/	Bu-	krzep-	-cią-	.
8r	8r	.	.	.	.	.	.
!	!	!LO:DY:b:rj	!	!	!	!	!
8.B-L 8.G\	(>16cc\LL	p	8g/	-drys,	-cy	-gnie	.
.	16b-\	.	.	.	.	.	.
.	16a\	.	8g/	trzech	i	się	.
16B-Jk 16G\	16g\JJ)	.	.	.	.	.	.
8B- 8G\	8dd`>\	.	8b-/	sy-	zdro-	dru-	.
8r	8r	.	8b-/	-now,	-wi,	-gi,	.
(>4A (<4D\	(>4f#X (<4c/	.	8d/	tę-	jedź-	w księ-	.
.	.	.	8d/	-gich	-cie	-dza	.
=9	=9	=9	=9	=9	=9	=9	=9
8G 8GG\))	8g 8B-/))	.	4g/	jak	słu-	Kiej-	.
8r	8r	.	.	.	.	.	.
8.B-L 8.G\	(>16cc\LL	.	8g/	sam	-żyć	-stu-	.
.	16b-\	.	.	.	.	.	.
.	16a\	.	8g/	Lit-	kra-	-ta	.
16B-Jk 16G\	16g\JJ)	.	.	.	.	.	.
8B- 8G\	8dd`>\	.	8b-/	-wi-	-jo-	cu-	.
8r	8r	.	8b-/	-nów	-wi,	-gi,	.
(>4D (<4GG/	(>4g (<4B-/	.	8a/	na	niech	nie-	.
.	.	.	8g/	dzie-	-Li-	-chaj	.
=10	=10	=10	=10	=10	=10	=10	=10
8D 8DD/))	8f#X 8c/))	.	4f#X/	-dzi-	-tew-	tę-	.
8r	8r	.	.	.	.	.	.
8.cL 8.A 8.D\	(>16gg\LL	.	8a/	-niec	-skie	-pi	.
.	16ff\	.	.	.	.	.	.
.	16een\	.	8a/	przy-	pro-	Krzy-	.
16cJk 16A 16D\	16dd\JJ)	.	.	.	.	.	.
8c 8A 8D\	8aa`>\	.	4d/	-zy-	-wa-	-ża-	.
8r	8r	.	.	.	.	.	.
!LO:TX:t=P:problem=brak zakończenia łuku	!LO:TX:t=P:problem=brak zakończenia łuków	!	!	!	!	!	!
(>4d\	(>4ff#X (<4cc\	.	8e-/	-wa	-dzą	-ki	.
.	.	.	8f#/	i	was	psu-	.
!!LO:LB:g=original
=11	=11	=11	=11	=11	=11	=11	=11
!LO:TX:t=P:problem=mixed beam	!	!LO:DY:b:rj	!	!	!	!	!
16GG/LL)	(>8ggL 8b-\))	f	2g/	rze-	bo-	-bra-	.
(<16G\	.	.	.	.	.	.	.
16F\	16ff\L	.	.	.	.	.	.
16E-\JJ	16ee-\JJ	.	.	.	.	.	.
16D/LL	16dd\LL	.	.	.	.	.	.
16C/	16cc\	.	.	.	.	.	.
16BB-/	16b-\	.	.	.	.	.	.
16AA/JJ)	16a\JJ)	.	.	.	.	.	.
8GG/	8g\	.	8g/	-cze:	-gi!	-ty:	.
8r	8r	p	8r	.	.	.	.
(>4c (<4D\	(>4dd 4f#X\	.	8d/	„Wy-	Te-	tam	.
.	.	.	8d/	-pro-	-go	bur-	.
=12	=12	=12	=12	=12	=12	=12	=12
8B- 8GG\))	8gg 8g\)	.	4g/	-wadź-	ro-	-szty-	.
8r	8r	.	.	.	.	.	.
8.B-L 8.G\	(>16cc\LL	.	8g/	-cie	-ku	-nów	.
.	16b-\	.	.	.	.	.	.
.	16a\	.	8g/	ru-	nie	jak	.
16B-Jk 16G\	16g\JJ)	.	.	.	.	.	.
8B- 8G\	8dd\	.	8b-/	-ma-	ja-	pia-	.
8r	8r	.	8b-/	-ki	-dą	-sku,	.
(>4c (<4D\	(>4dd (<4f#X\	.	8d/	i	lecz	suk-	.
.	.	.	8d/	na-	ja-	-na	.
=13	=13	=13	=13	=13	=13	=13	=13
8B- 8GG\))	8gg 8g\))	.	4g/	-rządź-	-dą-	cud-	.
8r	8r	.	.	.	.	.	.
8.B-L 8.G\	(>16cc\LL	.	8g/	-cie	-cym	-ne-	.
.	16b-\	.	.	.	.	.	.
.	16a\	.	8g/	kul-	dam	-go	.
16B-Jk 16G\	16g\JJ)	.	.	.	.	.	.
8B- 8G\	8dd`>\	.	8b-/	-ba-	ra-	bla-	.
8r	8r	.	8b-/	-ki	-dą:	-sku	.
(>4c#X (<4G\	(>4gg (<4b-\	.	8a/	i	trzej	i	.
.	.	.	8g/	wy-	jes-	ka-	.
=14	=14	=14	=14	=14	=14	=14	=14
8d 8D\))	8ff#X 8a\))	.	4f#X/	-ostrz-	-teś-	-płańs-	.
8r	8r	.	.	.	.	.	.
8.cL 8.A\	(>16gg\LL	.	8a/	-cie	-cie	-kie	.
.	16ff#\	.	.	.	.	.	.
.	16een\	.	8a/	i	i	w bry-	.
16cJk 16A\	16dd\JJ)	.	.	.	.	.	.
8c 8A\	8aa`>\	.	4d/	gro-	ma-	-lan-	.
8r	8r	.	.	.	.	.	.
(>4d (<4D\	(>4ff# (<4cc\	.	8e-/	-ty	-cie	-tach	.
.	.	.	8f#/	i	trzy	or-	.
=15	=15	=15	=15	=15	=15	=15	=15
!LO:TX:t=P:problem=mixed beam	!	!	!	!	!	!	!
(>16GG/LL))	(>8ggL 8b-\))	f	2g/	mie-	dro-	-na-	.
16G\	.	.	.	.	.	.	.
16F\	16ff\L	.	.	.	.	.	.
16E-\JJ	16ee-\JJ	.	.	.	.	.	.
16D/LL	16dd\LL	.	.	.	.	.	.
16C/	16cc\	.	.	.	.	.	.
16BB-/	16b-\	.	.	.	.	.	.
16AA/JJ	16a\JJ)	.	.	.	.	.	.
8GG/)	8g\	.	8g/	-cze	-gi.	-ty.	.
8r	8r	p	8r	.	.	.	.
(>4c (<4F\	(>4a (<4e-/	.	8f/	Bo	Je-	Za	.
.	.	.	8f/	mó-	-den	Skir-	.
!!LO:PB:g=original
=16	=16	=16	=16	=16	=16	=16	=16
8B- 8BB-\))	8b- 8d/))	.	4b-\	-wio-	z wa-	-gieł-	.
8r	8r	.	.	.	.	.	.
8.dL 8.B-\	(>16ee-\LL	.	8b-\	-no	-szych	-łem	.
.	16dd\	.	.	.	.	.	.
.	16cc\	.	8b-\	mi	biedz	niech,	.
16dJk 16B-\	16b-\JJ)	.	.	.	.	.	.
8d 8B-\	8ff`>\	.	8dd\	w Wil-	mu-	trze-	.
8r	8r	.	8dd\	-nie,	-si,	-ci,	.
(>4F\	(>4dd (<4f\	.	8f/	że	za	po	.
.	.	.	8f/	o-	Ol-	za	.
=17	=17	=17	=17	=17	=17	=17	=17
8B-\)	8b- 8d\))	.	4b-\	-trą-	-gier-	Nie-	.
8r	8r	.	.	.	.	.	.
8.dL 8.B-\	(>16ee-\LL	.	8b-\	-bią	-dem	-men	.
.	16dd\	.	.	.	.	.	.
.	16cc\	.	8b-\	nie	ku	prze-	.
16dJk 16B-\	16b-\JJ)	.	.	.	.	.	.
8d 8B-\	8ff`>\	.	8dd\	myl-	Ru-	-le-	.
8r	8r	.	8dd\	-nie	-si,	-ci,	.
(>4F (<4BB-\	(>4b- (<4d/	.	8cc\	trzy	po-	nędz-	.
.	.	.	8b-\	wy-	-nad	-ne	.
=18	=18	=18	=18	=18	=18	=18	=18
8F 8C\))	8a 8e-/))	.	4a/	-pra-	Il-	znaj-	.
8r	8r	.	.	.	.	.	.
8.e-L 8.c\	(<16b-/LL	.	8cc\	-wy	-men,	-dzie	.
.	16a/	.	.	.	.	.	.
.	16g/	.	8cc\	na	pod	tam	.
16e-Jk 16c\	16f/JJ)	.	.	.	.	.	.
8e- 8c\	8cc`</	.	4f/	świa-	mur	sprzę-	.
8r	8r	.	.	.	.	.	.
(>4c (<4F\	(>4a (<4e-/	.	8g/	-ta	No-	-ty	.
.	.	.	8a/	trzy	-wo-	do-	.
=19	=19	=19	=19	=19	=19	=19	=19
!LO:TX:t=P:problem=mixed beam	!	!	!	!	!	!	!
16BB-/LL))	8b-L 8d/))	.	2b-/	stro-	-gro-	-mo-	.
(>16B-\	.	.	.	.	.	.	.
16A\	(<16a/L	.	.	.	.	.	.
16G\JJ	16g/JJ	.	.	.	.	.	.
16F\LL	16f/LL	.	.	.	.	.	.
16E-\	16e-/	.	.	.	.	.	.
16D\	16d/	.	.	.	.	.	.
16C\JJ)	16c/JJ	.	.	.	.	.	.
8BB-\	8B-/)	.	4b-/	-ny:	-du.	-we:	.
8r	8r	.	.	.	.	.	.
(>4F (<4FF\	(>4dd (<4f\	.	8f/	Ol-	Tam	a-	.
.	.	.	8f/	-gierd	so-	-le	.
=20	=20	=20	=20	=20	=20	=20	=20
8B- 8BB-\))	8b- 8d\))	.	4b-\	Rus-	-bo-	za	.
8r	8r	.	.	.	.	.	.
8.dL 8.B-\	(>16ee-\LL	.	8b-\	-kie	-le	to	.
.	16dd\	.	.	.	.	.	.
.	16cc\	.	8b-\	po-	o-	wy-	.
16dJk 16B-\	16b-\JJ)	.	.	.	.	.	.
8d 8B-\	8ff`>\	.	8dd\	-sa-	-go-	-bie-	.
8r	8r	.	8dd\	-dy,	-ny	-rze	.
4B- 4F 4BB-\	4bb- 4dd 4b-\	sf	8f/	Skir-	i	do-	.
.	.	.	8f/	-giełł	śreb-	-bre	.
!!LO:LB:g=original
=21	=21	=21	=21	=21	=21	=21	=21
8B-\	8b- 8f 8d/	.	4b-\	La-	-rzys-	sza-	.
8r	8r	.	.	.	.	.	.
8.dL 8.B-\	(>16ee-\LL	.	8b-\	-chy	-te	-ble	.
.	16dd\	.	.	.	.	.	.
.	16cc\	.	8b-\	są-	za-	puk-	.
16dJk 16B-\	16b-\JJ)	.	.	.	.	.	.
8d 8B-\	8ff`>\	.	8dd\	-sia-	-sło-	-le-	.
8r	8r	.	8dd\	-dy,	-ny,	-rze,	.
(>4F (<4BB-\	(>4b- (<4d/	.	8cc\	a	i	i	.
.	.	.	8b-\	ksiądz	u	mnie	.
=22	=22	=22	=22	=22	=22	=22	=22
8F 8C\))	8a 8e-/))	.	4a/	Kiej-	kup-	stam-	.
8r	8r	.	.	.	.	.	.
8.e-L 8.c\	(<16b-/LL	.	8cc/	-stut	-ców	-tąd	.
.	16a/	.	.	.	.	.	.
.	16g/	.	8cc/	na-	tam	przy-	.
16e-Jk 16c\	16f/JJ)	.	.	.	.	.	.
8e- 8c\	8cc`</	.	4f/	-pad-	dzię-	-wie-	.
8r	8r	.	.	.	.	.	.
(>4c (<4F\	(>4a (<4e-/	.	8g/	-nie	-gi	-zie	.
.	.	.	8a/	Teu-	jak	sy......	.
=23	=23	=23	=23	=23	=23	=23	=23
*>B1	*>B1	*	*>B1	*	*	*	*
*	*	*	*2\right	*	*	*	*
!	!	!	!LO:TX:i:a:t=1.a e IIda V[olta].	!	!	!	!
8B- 8BB-\))	8b- 8d/))	.	2b-\	-to-	lo-	.	.
(<8e-L 8E-/	(>16ee-\LL	ff	.	.	.	.	.
.	16eee-\JJ	.	.	.	.	.	.
8d 8D/	16dd\LL	.	.	.	.	.	.
.	16ddd\	.	.	.	.	.	.
8c#XJ 8C#y/	16cc#X\	.	.	.	.	.	.
.	16ccc#y\JJ	.	.	.	.	.	.
8B-L 8BB-/	16b-\LL	.	4b- 4B-/	-ny.	-du.	.	.
.	16bb-\	.	.	.	.	.	.
8A 8AA/	16a\	.	.	.	.	.	.
.	16aa\JJ	.	.	.	.	.	.
8G 8GG/	16g\LL	.	4r	.	.	.	.
.	16gg\	.	.	.	.	.	.
8F#XJ 8FF#y/	16f#X\	.	.	.	.	.	.
.	16ff#y\JJ	.	.	.	.	.	.
=24	=24	=24	=24	=24	=24	=24	=24
8E-L 8EE-/	16e-\LL	.	1r	.	.	.	.
.	16ee-\	.	.	.	.	.	.
8D 8DD/	16d\	.	.	.	.	.	.
.	16dd\JJ	.	.	.	.	.	.
8C 8CC/	16c#X\LL	.	.	.	.	.	.
.	16cc#y\	.	.	.	.	.	.
8BB-J 8BBB-/	16B-\	.	.	.	.	.	.
.	16b-\JJ	.	.	.	.	.	.
!	!LO:TX:t=P:problem=mixed beam	!	!	!	!	!	!
8AAL 8AAA/	16A</LL	.	.	.	.	.	.
.	16a\	.	.	.	.	.	.
8GG 8GGG/	16G</	.	.	.	.	.	.
.	16g\JJ	.	.	.	.	.	.
!	!LO:TX:t=P:problem=mixed beam	!	!	!	!	!	!
8FF#X 8FFF#y/	16F#X</LL	.	.	.	.	.	.
.	16f#y\	.	.	.	.	.	.
8EE-J 8EEE-/)	16E-</	.	.	.	.	.	.
.	16e-\JJ)	.	.	.	.	.	.
=25:|!	=25:|!	=25:|!	=25:|!	=25:|!	=25:|!	=25:|!	=25:|!
*>B2	*>B2	*	*>B2	*	*	*	*
!	!	!	!LO:TX:i:a:t=IIItia V[olta].	!	!	!	!
8B- 8BB-\	8b- 8d/	.	2b-\	.....no-	.	.	.
8dL 8B-\	8ddL 8f/	.	.	.	.	.	.
8d 8B-\	8dd 8f/	.	.	.	.	.	.
8dJ 8B-\	8ddJ 8f/	.	.	.	.	.	.
8fL 8d\	8ffL 8f\	.	4b- 4B-/	-wę	.	.	.
8f 8d\	8ff 8f\	.	.	.	.	.	.
!LO:TX:a:t=P:problem=takty 25-26 poprawione przez głównego skryptora	!	!	!	!	!	!	!
8d 8B-\	8dd 8f\	.	8b-/	i	.	.	.
8dJ 8B-\	8ddJ 8f\	.	8b-/	mnie	.	.	.
=26	=26	=26	=26	=26	=26	=26	=26
*>C	*>C	*	*>C	*	*	*	*
8cL 8A\	8ddL 8f#X/	.	(<4a/	stam-	.	.	.
8c 8A\	8dd 8f#/	.	.	.	.	.	.
8B- 8G\	8dd 8g/	.	4g/)	.	.	.	.
8B-J 8G\	8ddJ 8g/	.	.	.	.	.	.
8AL 8F#X\	8ddL 8a/	.	4f#X/	-tąd	.	.	.
8A 8F#\	8dd 8a/	.	.	.	.	.	.
8A-X 8Fn\	8bn 8d/	.	4fn/	przy-	.	.	.
8A-J 8F\	8bJ 8d/	.	.	.	.	.	.
!!LO:LB:g=original
=27	=27	=27	=27	=27	=27	=27	=27
*tremolo	*tremolo	*	*	*	*	*	*
*2\right	*2\right	*	*	*	*	*	*
8c 8En\L	8cc 8g\L	.	2en/	-wie-	.	.	.
8c 8En\	8cc 8g\	.	.	.	.	.	.
8c 8En\	8cc 8g\	<	.	.	.	.	.
8c 8En\J	8cc 8g\J	.	.	.	.	.	.
8A#X 8E-X\L	8cc#X 8g\L	.	4e-X/	-zie	.	.	.
8A#X 8E-X\	8cc#X 8g\	.	.	.	.	.	.
8A#X 8E-X\	8cc#X 8g\	.	4e-/	sy-	.	.	.
8A#X 8E-X\J	8cc#X 8g\J	[	.	.	.	.	.
*	*Xtremolo	*	*	*	*	*	*
=28	=28	=28	=28	=28	=28	=28	=28
8Bn 8D\L	8ddL 8g\	.	(>1d	-no-	.	.	.
8Bn 8D\	8dd 8g\	f	.	.	.	.	.
8Bn 8D\	8gg 8g\	.	.	.	.	.	.
8Bn 8D\J	8ggJ 8g\	>	.	.	.	.	.
*Xtremolo	*	*	*	*	*	*	*
8cL 8D\	8ff#XL 8a\	.	.	.	.	.	.
8c 8D\	8ff# 8a\	.	.	.	.	.	.
!	!LO:TX:t=P:problem=zapis niejasny	!	!	!	!	!	!
8c#X 8D\	8een 8a#X\	.	.	.	.	.	.
8c#J 8D\	8eeJ 8a#\	]	.	.	.	.	.
=29	=29	=29	=29	=29	=29	=29	=29
*^	*	*	*	*	*	*	*
!	!	!	!	!LO:TX:a:t=P:problem=takt poprawiony przez głównego skryptora; przed poprawieniem była nuta "1d"	!	!	!	!
8d 8Bn/	2D\	8dd 8bn\	.	4d/)	-wę	.	.	.
8r	.	8r	.	.	.	.	.	.
(>4G#X/	.	(>4een (<4en\	>	4r	.	.	.	.
4A/)	2ryy	4cc 4e\))	]	2r	.	.	.	.
4E-`< 4AA/	.	4a`< 4c/	.	.	.	.	.	.
*v	*v	*	*	*	*	*	*	*
=30	=30	=30	=30	=30	=30	=30	=30
*	*^	*	*	*	*	*	*
!	!	!	!	!LO:TX:a:t=P::problem=takt poprawiony przez głównego skryptora; przed poprawieniem była nuta „4g” oraz sylaba pod nią&colon; „-wę”.	!	!	!	!
[>1D	2g/	1d 1B-	p	1r	.	.	.	.
.	.	.	.	.	.	.	.	.
.	4f#X/	.	.	.	.	.	.	.
.	4g/	.	.	.	.	.	.	.
=31	=31	=31	=31	=31	=31	=31	=31	=31
1D] 1DD	(>2.a 2.f/	2c\	fp	1r	.	.	.	.
.	.	2d\	.	.	.	.	.	.
.	4g/)	.	.	.	.	.	.	.
*kcancel	*kcancel	*	*	*kcancel	*	*	*	*
*	*v	*v	*	*	*	*	*	*
!!LO:PB:g=original
=32||	=32||	=32||	=32||	=32||	=32||	=32||	=32||
*k[f#]	*k[f#]	*	*k[f#]	*	*	*	*
*M3/8	*M3/8	*	*M3/8	*	*	*	*
!	!LO:TX:t=P::problem=znak przykluczowy&colon; f#	!	!LO:TX:i:a:t=Andantino.	!	!	!	!
!	!	!	!LO:TX:t=P:problem=na skanie 0031 jest metrum 3/4, a na następnej stronie już 3/8	!	!	!	!
!	!	!	!LO:TX:t=P::problem=znak przykluczowy&colon; f#	!	!	!	!
4GG'</	8r	.	16d/	Bo	.	.	.
.	.	.	16d/	nad	.	.	.
.	8gL 8d 8B'</	.	8.b/	wszyst-	.	.	.
8r	8gJ 8d 8B'</	.	.	.	.	.	.
.	.	.	16a/	-kich	.	.	.
=33	=33	=33	=33	=33	=33	=33	=33
4G\	8r	.	8g/	ziem	.	.	.
.	8dL 8B/	.	8f#/	bran-	.	.	.
8r	8gJ 8d 8B/	.	8g/	-ki	.	.	.
=34	=34	=34	=34	=34	=34	=34	=34
4F#\	8r	.	16d/	mil-	.	.	.
.	.	.	16d/	-sze	.	.	.
.	8aL 8d 8c/	.	8.cc\	La-	.	.	.
8r	8aJ 8d 8c/	.	.	.	.	.	.
.	.	.	16b\	-szki	.	.	.
=35	=35	=35	=35	=35	=35	=35	=35
4D\	8r	.	8a/	ko-	.	.	.
.	8g#XL 8c/	.	8g#X/	-chan-	.	.	.
8r	8aJ 8f# 8c/	.	8a/	-ki,	.	.	.
=36	=36	=36	=36	=36	=36	=36	=36
4G\	8r	.	16b/	we-	.	.	.
.	.	.	16b/	-so-	.	.	.
.	8dL 8B/	.	8a/	-lut-	.	.	.
8r	8gJ 8d 8B/	.	8g/	-kie	.	.	.
=37	=37	=37	=37	=37	=37	=37	=37
*^	*	*	*	*	*	*	*
(<8D/L	4.GG\	(<8bL 8d/	.	16.b/	jak	.	.	.
.	.	.	.	32b/	mło-	.	.	.
8F#/	.	8a 8c/	.	8a/	-de	.	.	.
8G/J)	.	8gJ 8d 8B/)	.	8g/	ko-	.	.	.
*v	*v	*	*	*	*	*	*	*
=38	=38	=38	=38	=38	=38	=38	=38
4.D\	8r	.	4.a/	-tecz-	.	.	.
.	8aL 8f# 8d/	.	.	.	.	.	.
.	8ccJ 8a/	.	.	.	.	.	.
=39	=39	=39	=39	=39	=39	=39	=39
(>8F#L 8D\	(>8eeL 8cc\	>	4d/	-ki.	.	.	.
8G 8E\	8dd 8b\	.	.	.	.	.	.
8AJ 8F#\)	8ccJ 8a\)	]	8r	.	.	.	.
!!LO:LB:g=original
=40	=40	=40	=40	=40	=40	=40	=40
16BLL 16G'>\	16bLL 16d'</	.	16d/	li-	.	.	.
16BJ 16G'>\	16bJ 16d'</	.	16d/	-ca	.	.	.
8B 8G'>\	8b 8d'</	.	8.b/	biel-	.	.	.
8D'>\J	8aJ 8f# 8c'</	.	.	.	.	.	.
.	.	.	16a/	-sze	.	.	.
=41	=41	=41	=41	=41	=41	=41	=41
.	.	.	(<8qa/	.	.	.	.
4GG/	8r	.	8g/)	od	.	.	.
.	8dL 8B/	.	8f#/	mle-	.	.	.
8r	8gJ 8d 8B/	.	8g/	-ka	.	.	.
=42	=42	=42	=42	=42	=42	=42	=42
16ALL 16F# 16D'>\	16d'</LL	.	16d/	z czar-	.	.	.
16AJ 16F# 16D'>\	16d'</J	.	16d/	-ną	.	.	.
8A 8F# 8D'>\	8cc 8a'</	.	8.cc\	rzę-	.	.	.
8BJ 8G 8D'>\	8bJ 8g'</	.	.	.	.	.	.
.	.	.	16b\	-są,	.	.	.
=43	=43	=43	=43	=43	=43	=43	=43
.	.	.	(<8qb/	.	.	.	.
4D\	8r	.	8a/)	po-	.	.	.
!	!LO:TX:t=P:problem=zapis niejednoznaczny	!	!	!	!	!	!
.	8g#XL 8e#X 8d/	.	8g#X/	-wie-	.	.	.
8r	8aJ 8f# 8d/	.	8a/	-ka	.	.	.
=44	=44	=44	=44	=44	=44	=44	=44
8DL 8GG/	8bL 8d 8B/	.	16b/	ocz-	.	.	.
.	.	.	16b/	-ki	.	.	.
8D 8GG/	8a 8d 8B/	.	16a/	bły-	.	.	.
.	.	.	16a/	-szczą	.	.	.
8DJ 8GG/	8gJ 8d 8B/	.	8g/	się	.	.	.
=45	=45	=45	=45	=45	=45	=45	=45
4GG/	8r	.	8dd/	jak	.	.	.
.	8gL 8d 8B/	.	8g/	dwie	.	.	.
8r	8gJ 8d 8B/	.	8a/	gwiaz-	.	.	.
=46	=46	=46	=46	=46	=46	=46	=46
4G\	8r	.	8cc\	-decz-	.	.	.
.	8gL 8d 8B/	.	8b\	-ki.	.	.	.
8r	8gJ 8d 8B/	.	8r	.	.	.	.
=47	=47	=47	=47	=47	=47	=47	=47
*^	*^	*	*	*	*	*	*
*	*^	*	*	*	*	*	*	*	*
4.B-X/	8E/L	4.GG\	4.g/	(>8c#X\L	>	4.r	.	.	.	.
.	8D/	.	.	8d\	.	.	.	.	.	.
.	8C#X/J	.	.	8e\J)	]	.	.	.	.	.
*v	*v	*v	*	*	*	*	*	*	*	*
*	*v	*v	*	*	*	*	*	*
!!LO:LB:g=original
=48	=48	=48	=48	=48	=48	=48	=48
4GG/	8r	.	16d/	Stam-	.	.	.
.	.	.	16d/	-tąd	.	.	.
.	8gL 8d 8B-X/	.	8.b-X/	ja	.	.	.
8r	8gJ 8d 8B-/	.	.	.	.	.	.
.	.	.	16a/	przed	.	.	.
=49	=49	=49	=49	=49	=49	=49	=49
4G\	8r	.	8g/	pół	.	.	.
.	8dL 8B-X/	.	8f#/	wie-	.	.	.
8r	8gJ 8d 8B-/	.	8g/	-kiem	.	.	.
=50	=50	=50	=50	=50	=50	=50	=50
4F#\	8r	.	16d/	gdym	.	.	.
.	.	.	16d/	był	.	.	.
.	8aL 8d 8c/	.	8.cc\	mło-	.	.	.
8r	8aJ 8d 8c/	.	.	.	.	.	.
.	.	.	16b-X\	-dym	.	.	.
=51	=51	=51	=51	=51	=51	=51	=51
4D\	8r	.	8a/	czło-	.	.	.
.	8g#XL 8e#X/	.	8g#X/	-wie-	.	.	.
8r	8aJ 8f#/	.	8a/	-kiem	.	.	.
=52	=52	=52	=52	=52	=52	=52	=52
4G\	8r	.	16b-X/	Lasz-	.	.	.
.	.	.	16b-/	-kę	.	.	.
.	8dL 8B-X/	.	8a/	so-	.	.	.
8r	8gJ 8d 8B-/	.	8g/	-bie	.	.	.
=53	=53	=53	=53	=53	=53	=53	=53
(>8dL 8B-X\	(>8ddL 8b-X\	.	16b-X/	przy-	.	.	.
.	.	.	16b-/	-wio-	.	.	.
8e-X 8c\	8cc 8a\	.	8a/	-złem	.	.	.
8enJ 8c#X\)	8b-J 8g\)	.	8g/	za	.	.	.
=54	=54	=54	=54	=54	=54	=54	=54
4d\	8r	.	4.a/	żo-	.	.	.
.	8aL 8f#/	.	.	.	.	.	.
8r	8f#J 8d/	.	.	.	.	.	.
=55	=55	=55	=55	=55	=55	=55	=55
8CL 8AA 8DD^<\	8dL 8A< 8F#<^>/	.	4d/	-nę,	.	.	.
8BB 8GG 8DD^<\	8d 8B-X< 8G<^>/	.	.	.	.	.	.
8AAJ 8FF# 8DD^<\	8dJ 8c< 8A<^>/	.	8r	.	.	.	.
!!LO:PB:g=original
=56	=56	=56	=56	=56	=56	=56	=56
4.GG\	8r	.	16d/	a	.	.	.
.	.	.	16d/	choć	.	.	.
.	8dL 8B-X< 8G</	.	8.b-X/	o-	.	.	.
.	8e-XJ 8c 8F#</	.	.	.	.	.	.
.	.	.	16a/	-na	.	.	.
=57	=57	=57	=57	=57	=57	=57	=57
.	.	.	(<8qa/	.	.	.	.
4GG/	8r	.	8g/)	już	.	.	.
.	8dL 8B/	.	8f#X/	w gro-	.	.	.
8r	8gJ 8d 8B/	.	8g/	-bie,	.	.	.
=58	=58	=58	=58	=58	=58	=58	=58
8GG/L	8a-XL 8f#/	.	16a-X/	jesz-	.	.	.
!	!	!	!	!	!	!	!LO:HP:a
.	.	.	16a-/	-cze	.	.	>
8AA/	8g 8e-X/	>	8g/	do-	.	.	.
8BBn/J	8fnJ 8d/	.	8fn/	-tąd	.	.	.
=59	=59	=59	=59	=59	=59	=59	=59
8C/L	8e-XL 8c/	.	8e-X/	ją	.	.	.
8D/	8d 8B-X/	]	8d/	so-	.	.	]
8E-X/J	8c#XJ 8B- 8G/	.	8c#X/	-bie	.	.	.
=60	=60	=60	=60	=60	=60	=60	=60
4D 4DD/	4d 4B-X 4G/	sf	16d/	przy-	.	.	.
!	!	!	!LO:TX:t=ri-tar-dan-do:dur=5es:ext=ud:problem=text with extention lines	!	!	!	!
.	.	.	16d/	-po-	.	.	.
.	.	.	8e-X^</	-mi-	.	.	.
8r	8r	.	16d/	-nam	.	.	.
.	.	.	16d/	gdy	.	.	.
=61	=61	=61	=61	=61	=61	=61	=61
4D\	(>4d 4A 4F#X/	.	8d/	spoj-	.	.	.
.	.	.	8c#X/	-rze	.	.	.
8r	8c/)	.	8d/	w tę	.	.	.
=62	=62	=62	=62	=62	=62	=62	=62
!	!	!	!	!	!	!	!LO:DY:a
8DL 8GG/	8B-XL 8G/	.	(>4dd\	stro-	.	.	pp
8D 8GG/	8d 8B-/	.	.	.	.	.	.
8DJ 8GG/	8gJ 8B-/	.	8b-X\)	.	.	.	.
=63	=63	=63	=63	=63	=63	=63	=63
*^	*	*	*	*	*	*	*
(4G/	4GG\	(>4b-X (<4g\	.	4g/	-nę!"	.	.	.
8e-X/)	8r	8cc 8a\))	.	8r	.	.	.	.
*v	*v	*	*	*	*	*	*	*
!!LO:LB:g=original
=64||	=64||	=64||	=64||	=64||	=64||	=64||	=64||
*k[f#]	*k[f#]	*	*k[f#]	*	*	*	*
*M4/4	*M4/4	*	*M4/4	*	*	*	*
*met(c)	*met(c)	*	*met(c)	*	*	*	*
*	*^	*	*	*	*	*	*
!	!LO:TX:t=P::problem=znak przykluczowy&colon; f#	!	!	!	!	!	!	!
!	!LO:TX:a:i:t=Piu moſso	!	!	!	!	!	!	!
1r	[>1dd [>1b-X	(>1d<	.	1r	.	.	.	.
=65	=65	=65	=65	=65	=65	=65	=65	=65
8r	2dd] 2b-/]	4.d\)	.	1r	.	.	.	.
8BB-X/	.	.	f	.	.	.	.	.
16E-X/LL	.	.	.	.	.	.	.	.
16D/	.	.	.	.	.	.	.	.
16C/	.	8e-X\	.	.	.	.	.	.
16BB-/JJ	.	.	.	.	.	.	.	.
8Fn\	8cc/	8b-y 8fn\	.	.	.	.	.	.
8r	8r	4.ryy	.	.	.	.	.	.
8FFny/	8ff# 8cc 8a 8e-X\	.	.	.	.	.	.	.
8r	8r	.	.	.	.	.	.	.
*	*v	*v	*	*	*	*	*	*
=66	=66	=66	=66	=66	=66	=66	=66
8BB-X/	8dd 8b-X 8d\	.	1ryy	.	.	.	.
8r	8r	.	.	.	.	.	.
!	!LO:TX:i:b:t=sec	!	!	!	!	!	!
4BB- 4BBB-y/	4bb-y 4ffny 4dd 4b-\	sf	.	.	.	.	.
2r	2r	.	.	.	.	.	.
=67	=67	=67	=67	=67	=67	=67	=67
1r	1r	.	4r	.	.	.	.
!	!	!	!LO:TX:i:a:t=Recitativo.	!	!	!	!
.	.	.	8b-X\	Ta-	.	.	.
.	.	.	8b-\	-ką	.	.	.
.	.	.	4b-\	daw-	.	.	.
.	.	.	8cc\	-szy	.	.	.
.	.	.	8b-\	przes-	.	.	.
=68	=68	=68	=68	=68	=68	=68	=68
4r	4r	.	4a\	-tro-	.	.	.
!	!	!LO:DY:b:rj	!	!	!	!	!
[>2.F# [<2.FF#/	[<2.a [<2.d\	fp	4a\	-gę	.	.	.
.	.	.	4r	.	.	.	.
.	.	.	8a/	bło-	.	.	.
.	.	.	8a/	-go-	.	.	.
=69	=69	=69	=69	=69	=69	=69	=69
*	*^	*	*	*	*	*	*
1F#] 1FF#]	2dd/	1a] 1d]	.	2dd\	-sła-	.	.	.
.	2cc/	.	.	4.cc\	-wił	.	.	.
.	.	.	.	8dd\	na	.	.	.
*	*v	*v	*	*	*	*	*	*
!!LO:LB:g=original
=70	=70	=70	=70	=70	=70	=70	=70
4r	4r	.	4cc\	dro-	.	.	.
4G 4GG\	4b-X 4g 4d/	.	4b-X\	-gę:	.	.	.
!	!	!	!LO:TX:i:a:t=a tempo Allegro	!	!	!	!
4r	4r	.	4r	.	.	.	.
!LO:TX:t=P:problem=klamra łukowa	!LO:TX:t=P:problem=klamra łukowa	!	!	!	!	!	!
!	!	!	!LO:TX:t=P:problem=klamra łukowa	!	!	!	!
12r	12r	.	12r	.	.	.	.
12B-X\L	12b-X/L	.	12b-\	o-	.	.	.
12B-\J	12b-/J	.	12b-\	-ni	.	.	.
=71	=71	=71	=71	=71	=71	=71	=71
*Xtuplet	*Xtuplet	*	*	*	*	*	*
!	!	!	!LO:TX:t=P:problem=klamra łukowa	!	!	!	!
(>12d\L	(<12dd/L	.	12dd\	wsied-	.	.	.
12G\)	12g/)	.	12g/	-li	.	.	.
12G`>\J	12g`</J	.	12g/	broń	.	.	.
!	!	!	!LO:TX:t=P:problem=klamra łukowa	!	!	!	!
(>12B-X\L	(<12b-X/L	.	12b-X/	wzię-	.	.	.
12D\)	12d/)	.	12d/	-li	.	.	.
12D`>\J	12d`</J	.	12d/	po-	.	.	.
!	!	!	!LO:TX:t=P:problem=decrescendo za nutą na pięciolinii	!	!	!	!LO:HP:a
(>8G\L	(<8g/L	f	2g/	-bieg-	.	.	>]
16Fn\L	16fn/L	>	.	.	.	.	.
16E-X\JJ	16e-X/JJ	.	.	.	.	.	.
16D\LL	16d/LL	.	.	.	.	.	.
16C\	16c/	.	.	.	.	.	.
16BB-X\	16B/	]	.	.	.	.	.
16AA\JJ)	16A/JJ	.	.	.	.	.	.
=72	=72	=72	=72	=72	=72	=72	=72
4GG/	4G/)	.	4G/	-li.	.	.	.
4g 4d 4B-X 4G\	4bb-X 4gg 4dd 4b\	sf	4r	.	.	.	.
4r	4r	.	2r	.	.	.	.
8.r	8.r	.	.	.	.	.	.
16G 16GG\	16g/	.	.	.	.	.	.
=73	=73	=73	=73	=73	=73	=73	=73
4F# 4FF#\	4f#/	.	1r	.	.	.	.
4d 4A 4F#\	4aa 4dd 4a\	sf	.	.	.	.	.
4r	4r	.	.	.	.	.	.
8.r	8.r	.	.	.	.	.	.
16F# 16FF#\	16f#/	.	.	.	.	.	.
=74	=74	=74	=74	=74	=74	=74	=74
4Fn 4FFn\	4fn/	.	1r	.	.	.	.
4d 4Bn 4A-X 4F\	4aa-X 4dd 4b\	sf	.	.	.	.	.
4r	4r	.	.	.	.	.	.
8.r	8.r	.	.	.	.	.	.
16F 16FF\	16f/	.	.	.	.	.	.
=75	=75	=75	=75	=75	=75	=75	=75
4E 4EE\	4e/	.	2r	.	.	.	.
4d 4B 4E\	4gg#X 4dd 4b\	sf	.	.	.	.	.
!!LO:PB:g=original
4r	4r	.	2r	.	.	.	.
8.r	8.r	.	.	.	.	.	.
16E 16EE/	16e/	.	.	.	.	.	.
=76||	=76||	=76||	=76||	=76||	=76||	=76||	=76||
*M3/8	*M3/8	*	*	*	*	*	*
!	!	!	!LO:TX:a:i:t=l'isteſso tempo [eighth note]=[quarter note]	!	!	!	!
8D#X 8DD/	8d#X/	.	8r	.	.	.	.
!	!	!LO:DY:b:rj	!	!	!	!	!
[>4D#X [>4BB [>4GG#X\	4d#X< [<4B< [<4G#X</	p	8r	.	.	.	.
.	.	.	16g#X/	I-	.	.	.
.	.	.	16a#X/	-dzie	.	.	.
=77	=77	=77	=77	=77	=77	=77	=77
.	(<8qqe</	.	.	.	.	.	.
(<4.D#] 4.BB] 4.GG#\]	8d#< 8B<] 8G#</])	.	8b/	je-	.	.	.
.	4d#<^> [<4B< [<4G#y</	.	8g#X/	-sień	.	.	.
.	.	.	16g#/LL	i	.	.	.
.	.	.	16a#X/JJ	.	.	.	.
=78	=78	=78	=78	=78	=78	=78	=78
.	8qf#</	.	.	.	.	.	.
4.E 4.BB 4.EE\	8e< 8B<] 8G#</]	.	8b/	zi-	.	.	.
.	4e<^> [<4B< [<4G#X</	.	8g#X/	-ma,	.	.	.
.	.	.	16g#/LL	sy-	.	.	.
.	.	.	16a#X/JJ	-now	.	.	.
=79	=79	=79	=79	=79	=79	=79	=79
.	8qe</	.	.	.	.	.	.
4.D#X 4.BB 4.GG#X\	8d#X< 8B<] 8G#</]	.	8b/	nié	.	.	.
.	4d#<^> [<4B< [<4G#y</	.	8g#X/	ma	.	.	.
.	.	.	16g#/LL	i	.	.	.
.	.	.	16a#X/JJ	.	.	.	.
=80	=80	=80	=80	=80	=80	=80	=80
.	8qd#X</	.	.	.	.	.	.
4.E# 4.EE#\)	8c##X< 8B<] 8G#</]	.	8b/	nié-	.	.	.
.	4c##<^> 4B< 4G#y</	.	8b/	-ma,	.	.	.
.	.	.	16b/	Bu-	.	.	.
.	.	.	16b/	-drys	.	.	.
=81	=81	=81	=81	=81	=81	=81	=81
.	(<8qe</	.	.	.	.	.	.
(<4.F# 4.FF#\	4.d< [>4.A</)	.	8a/	my-	.	.	.
.	.	.	8a/	-ślał	.	.	.
.	.	.	8a/	że	.	.	.
=82	=82	=82	=82	=82	=82	=82	=82
4.C#X 4.AA 4.EE\	4.g 4.c#X 4.A</]	.	8a/	w bo-	.	.	.
.	.	.	8a/	-ju	.	.	.
.	.	.	8a/	po-	.	.	.
=83	=83	=83	=83	=83	=83	=83	=83
[>4.D [<4.AA [<4.DD\)	[>4.f# [>4.d [<4.A</	.	4.a/	-le-	.	.	.
=84	=84	=84	=84	=84	=84	=84	=84
4D] 4AA] 4DD\]	4f#] 4d] 4A</]	.	4d/	-gli.	.	.	.
8r;>	8r;>	.	8r;>	.	.	.	.
!!LO:LB:g=original
=85||	=85||	=85||	=85||	=85||	=85||	=85||	=85||
!	!LO:TX:i:a:t=Allegro agitato	!	!	!	!	!	!
!	!	!	!LO:N:vis=2	!	!	!	!
8GG/	8g 8d 8B/	f	4.r	.	.	.	.
8BL 8G\	16cc/LL	p	.	.	.	.	.
.	16b/	.	.	.	.	.	.
8BJ 8G\	16a/	.	.	.	.	.	.
.	16g/JJ	.	.	.	.	.	.
=86!|:	=86!|:	=86!|:	=86!|:	=86!|:	=86!|:	=86!|:	=86!|:
*>D	*>D	*	*	*>D	*	*	*
4.c 4.A 4.D^>\	8dd 8f#/	.	8r	.	.	.	.
!	!LO:TX:t=P:problem=mixed beam	!	!	!	!	!	!
.	8d'</L	.	8d/	po	po	.	.
.	8dd^>\J	.	8d/	śnie-	snie-	.	.
=87	=87	=87	=87	=87	=87	=87	=87
*	*	*	*	*	*ij	*	*
8GG/	8g/	.	8g/	-ży-	-ży-	.	.
8BL 8G\	16cc/LL	.	8b/	-stej	-stej	.	.
.	16b/	.	.	.	.	.	.
8BJ 8G\	16a/	.	8r	.	.	.	.
.	16g/JJ	.	.	.	.	.	.
=88	=88	=88	=88	=88	=88	=88	=88
4.c 4.A 4.D^>\	8dd 8f#/	.	8r	.	.	.	.
!	!LO:TX:t=P:problem=mixed beam	!	!	!	!	!	!
.	8d'</L	.	8r	.	.	.	.
.	8dd^>\J	.	8d/	za-	za-	.	.
=89	=89	=89	=89	=89	=89	=89	=89
8GG/	8g/	.	8g/	-mie-	-mie-	.	.
8BL 8G\	16cc/LL	.	8d/	-ci,	-ci,	.	.
.	16b/	.	.	.	.	.	.
8BJ 8G\	16a/	.	8r	.	.	.	.
.	16g/JJ	.	.	.	.	.	.
=90	=90	=90	=90	=90	=90	=90	=90
4.c 4.A 4.D^>\	8dd 8f#/	.	8r	.	.	.	.
.	8d'</L	.	8d/	do	do	.	.
.	8dd^>\J	.	8d/	wsi	wsi	.	.
=91	=91	=91	=91	=91	=91	=91	=91
8GG/	8g/	.	8g/	zbroj-	zbroj-	.	.
8BL 8G\	16cc/LL	.	8b/	-ny	-ny	.	.
.	16b/	.	.	.	.	.	.
8BJ 8G\	16a/	.	8r	.	.	.	.
.	16g/JJ	.	.	.	.	.	.
=92	=92	=92	=92	=92	=92	=92	=92
4.c 4.A 4.D\	8dd 8f#/	.	8r	.	.	.	.
.	8d'</L	.	8r	.	.	.	.
.	8dd^>\J	.	8d/	mąż	mąż	.	.
=93	=93	=93	=93	=93	=93	=93	=93
8GL 8GG/	8g/L	.	8g/	le-	le-	.	.
8F# 8FF#/	8f#/	.	8g/	-ci,	-ci,	.	.
!	!LO:TX:b:t=cres-cen-do:dur=18e:ext=ud:problem=text with extention lines	!	!	!	!	!	!
8GJ 8GG/	8g/J	<	8r	.	.	.	.
=94	=94	=94	=94	=94	=94	=94	=94
8EL 8EE/	8ccL 8g/	.	4cc\	a	a	.	.
8D#X 8DD#y/	8b 8g/	.	.	.	.	.	.
8EJ 8EE/	8ccJ 8g/	.	8cc\	pod	pod	.	.
=95	=95	=95	=95	=95	=95	=95	=95
8DL 8DD/	8bL 8g/	.	8b\	bur-	bur-	.	.
8C#X 8CC#y/	8a#X 8g/	.	8a#X\	-ką	-ką	.	.
8DJ 8DD/	8bJ 8g/	.	8b\	wiel-	wielk-	.	.
!!LO:LB:g=original
=96	=96	=96	=96	=96	=96	=96	=96
.	.	.	8qb/	.	.	.	.
8CL 8CC/	8ddL 8a 8f#/	.	8a/	-kie-	-kie-	.	.
8BB 8BBB/	8dd 8g#X 8e#X/	.	8g#X/	-go	-go	.	.
8CJ 8CC/	8ddJ 8a 8f#/	.	8a/	coś	coś	.	.
=97	=97	=97	=97	=97	=97	=97	=97
8BBL 8BBB/	8gg`>L 8g\	.	4dd\	cho-	cho-	.	.
8AA#X 8AAA#y/	(>16dd\L	.	.	.	.	.	.
.	16b\J	.	.	.	.	.	.
8BBJ 8BBB/	8g\J)	.	8g/	-wa	-wa	.	.
=98	=98	=98	=98	=98	=98	=98	=98
8BB-XL 8BBB-y/	8ddL 8g/	.	8r	.	.	.	.
8AA 8AAA/	8cc#X 8g/	.	8r	.	.	.	.
8BB-J 8BBB-/	8ddJ 8g/	.	8dd\	pod	pod	.	.
=99	=99	=99	=99	=99	=99	=99	=99
8AAA/L	8eeL 8cc#X 8g/	.	8cc#X\	bur-	bur-	.	.
8AA/	8dd#X 8b#X 8g/	[	8a/	-ką	-ką	.	.
8AA/J	8eeJ 8cc# 8g/	.	8b/	wiel-	wiel-	.	.
=100	=100	=100	=100	=100	=100	=100	=100
!LO:TX:t=P:problem=mixed beam	!	!	!	!	!	!	!
8DD/L	8ff#L 8cc 8a/	.	8ccn\	-kie-	-kie-	.	.
8D\	8ee 8cc 8a/	.	8a/	-go	-go	.	.
8DD/J	8ff#J 8cc 8a/	.	8dd\	coś	coś	.	.
=101	=101	=101	=101	=101	=101	=101	=101
!	!	!LO:DY:b:rj	!	!	!	!	!
8GG 8GGG/	8gg 8b-X\	f	8g/	cho-	cho-	.	.
8B-XL 8G\	16ccc\LL	.	8g/	-wa.	-wa.	.	.
*	*	*	*	*	*Xij	*	*
.	16bb\	.	.	.	.	.	.
8B-J 8G\	16aa\	.	8r	.	.	.	.
.	16gg\JJ	.	.	.	.	.	.
=102	=102	=102	=102	=102	=102	=102	=102
4.c^> 4.A 4.D\	8ff#\	.	8r	.	.	.	.
!	!	!	!LO:TX:a:t=P::problem=takt poprawiony przez głównego skryptora; przed poprawieniem było&colon; „8r, 8dd, 16r, 16f#”	!	!	!	!
.	8ddd\L	.	8.dd\	„Ej	„Pew-	.	.
.	8dd\J	.	.	.	.	.	.
.	.	.	16f#/	to	-nie	.	.
=103	=103	=103	=103	=103	=103	=103	=103
8GG 8GGG/	8gg 8b-X\	.	8g/	ku-	z Nie-	.	.
8B-XL 8G\	16ccc\LL	.	8d/	-beł,	-miec,	.	.
.	16bb\	.	.	.	.	.	.
8B-J 8G\	16aa\	.	8r	.	.	.	.
.	16gg\JJ	.	.	.	.	.	.
=104	=104	=104	=104	=104	=104	=104	=104
4.c 4.A 4.D^>\	8ff#\	.	8r	.	.	.	.
.	8ddd\L	.	4dd\	w tym	mój	.	.
.	8dd\J	.	.	.	.	.	.
=105	=105	=105	=105	=105	=105	=105	=105
8GG 8GGG/	8gg 8b-X\	.	8b-X\	kub-	sy-	.	.
8B-XL 8G\	16ccc\LL	.	8g\	-le,	-nu	.	.
.	16bb\	.	.	.	.	.	.
8B-J 8G\	16aa\	.	8r	.	.	.	.
.	16gg\JJ	.	.	.	.	.	.
=106	=106	=106	=106	=106	=106	=106	=106
4.c 4.A 4.D^>\	8ff#\	.	8r	.	.	.	.
.	8ddd\L	.	8.dd\	No-	wie-	.	.
.	8dd\J	.	.	.	.	.	.
.	.	.	16f#/	-wo-	-zieſz	.	.
!!LO:PB:g=original
=107	=107	=107	=107	=107	=107	=107	=107
8GG/	8gg 8b-X\	.	8g/	-grodz-	ku-	.	.
8B-XL 8G\	16ccc\LL	.	8d/	-kie	-beł	.	.
.	16bb\	.	.	.	.	.	.
8B-J 8G\	16aa\	.	8r	.	.	.	.
.	16gg\JJ	.	.	.	.	.	.
=108	=108	=108	=108	=108	=108	=108	=108
4.c 4.A 4.D\	8ff#\	.	8r	.	.	.	.
.	8ddd\L	.	4dd\	są	bursz-	.	.
.	8dd\J	.	.	.	.	.	.
=109	=109	=109	=109	=109	=109	=109	=109
8B 8G\	8gg 8dd\	.	8b-X/	rub-	-ty-	.	.
!	!	!LO:DY:b:rj	!	!	!	!	!
8e-XL 8E-y\	16eee-X\LL	ff	8g/	-le."	-nu."	.	.
.	16ee-y\	.	.	.	.	.	.
!	!	!LO:HP:a	!	!	!	!	!
8dJ 8D\	16ddd\	>	8r	.	.	.	.
.	16dd\JJ	.	.	.	.	.	.
=110	=110	=110	=110	=110	=110	=110	=110
!	!	!	!LO:N:vis=2	!	!	!	!
8c#XL 8C#y/	16ccc#X\LL	.	4.r	.	.	.	.
.	16cc#y\	.	.	.	.	.	.
8B-X 8BB-y/	16bb-X\	.	.	.	.	.	.
.	16b-y\	.	.	.	.	.	.
8AJ 8AA/	16aa\	.	.	.	.	.	.
.	16a\JJ	.	.	.	.	.	.
=111	=111	=111	=111	=111	=111	=111	=111
!	!	!	!LO:N:vis=2	!	!	!	!
8GL 8GG/	16gg\LL	.	4.r	.	.	.	.
.	16g\	.	.	.	.	.	.
8F# 8FF#/	16ff#\	.	.	.	.	.	.
.	16f#\	.	.	.	.	.	.
8E-XJ 8EE-y/	16ee-X\	.	.	.	.	.	.
.	16e-y\JJ	.	.	.	.	.	.
=112	=112	=112	=112	=112	=112	=112	=112
!	!	!	!LO:N:vis=2	!	!	!	!
8DL 8DD/	16dd/LL	.	4.r	.	.	.	.
.	16d/	.	.	.	.	.	.
8C 8CC/	16ccn/	.	.	.	.	.	.
.	16c/	.	.	.	.	.	.
8BBJ 8BBB/	16bn/	]	.	.	.	.	.
.	16B/JJ	.	.	.	.	.	.
=113	=113	=113	=113	=113	=113	=113	=113
!	!	!	!LO:TX:t=P:problem=mixed beam	!	!	!	!
(>4BB-X 4BBB-y/	8r	.	(>8fn/L	„Nie,	„Nie,	.	.
.	8fnL 8d 8B-X/	.	8dd\J)	.	.	.	.
*	*	*	*	*	*ij	*	*
8FFn/)	8fJ 8d 8B-/	.	8cc\	mój	mój	.	.
=114	=114	=114	=114	=114	=114	=114	=114
.	.	.	8qcc/	.	.	.	.
(<4BB-X/	8r	.	8b-X/L	oj-	oj-	.	.
.	8fnL 8d 8B-X/	.	8a/J	.	.	.	.
!	!LO:TX:a:t=P:problem=takt poprawiony przez głównego skryptora	!	!	!	!	!	!
8D/)	8fJ 8B-/	.	8b-/	-cze,	-cze,	.	.
=115	=115	=115	=115	=115	=115	=115	=115
!	!	!	!LO:TX:t=P:problem=mixed beam	!	!	!	!
(<4C/	8r	.	(>8fn/L	nie,	nie,	.	.
.	8fnL 8e-X 8A/	.	8ee-X\J)	.	.	.	.
8FFn/)	8fJ 8e- 8A/	.	8dd\	mój	mój	.	.
=116	=116	=116	=116	=116	=116	=116	=116
.	.	.	8qdd/	.	.	.	.
(>4AA/	8r	.	8cc\L	oj-	oj-	.	.
.	8fnL 8e-X 8c/	.	8bn\J	.	.	.	.
8Fn\)	8e-J 8c 8A/	.	8cc\	-cze,	-cze,	.	.
=117	=117	=117	=117	=117	=117	=117	=117
4BB-X\	8r	.	8dd\	to	to	.	.
.	8dL 8B-X 8Fn</	.	8cc\	Lasz-	Lasz-	.	.
8r	8dJ 8B- 8F</	.	8b-X\	-ka	-ka	.	.
!!LO:LB:g=original
=118	=118	=118	=118	=118	=118	=118	=118
4B-X\	8r	.	8dd\	Lasz-	Lasz-	.	.
.	8fnL 8d/	.	8cc\	-ka	-ka	.	.
8r	8fJ 8d/	.	8b-X\	sy-	sy-	.	.
=119	=119	=119	=119	=119	=119	=119	=119
4BB-X/	8r	.	4.ffn\	-no-	-no-	.	.
.	8ddL 8fn 8d/	.	.	.	.	.	.
8r	8ddJ 8f 8d/	.	.	.	.	.	.
=120	=120	=120	=120	=120	=120	=120	=120
4AA/	8r	.	4.ff#Xt>\	-wa	-wa	.	.
.	8ccL 8f#X 8d/	.	.	.	.	.	.
8r	8ccJ 8f# 8d/	.	.	.	.	.	.
=121	=121	=121	=121	=121	=121	=121	=121
(>4GG/	8r	.	8gg\	to	to	.	.
.	8bnL 8g 8d/	.	8bn\	Lasz-	Lasz-	.	.
8C#X/)	8a#XJ 8g 8e/	.	8ee\	-ka,	-ka,	.	.
=122	=122	=122	=122	=122	=122	=122	=122
(<4D/	8r	.	8dd\	Lasz-	Lasz-	.	.
.	8bL 8g 8d/	.	8g/	-ka	-ka	.	.
.	.	.	8qb/	.	.	.	.
8DD/)	8aJ 8f# 8c/	.	8a/	sy-	sy-	.	.
=123	=123	=123	=123	=123	=123	=123	=123
.	.	.	(<8qa/	.	.	.	.
8GG/	8g 8B/	sf	8g/)	-no-	-no-	.	.
8BL 8G\	(>16cc\LL	.	8g/	-wa."	-wa."	.	.
*	*	*	*	*	*Xij	*	*
.	16b\	.	.	.	.	.	.
8BJ 8G\	16a\	.	8r	.	.	.	.
.	16g\JJ)	.	.	.	.	.	.
=124:|!	=124:|!	=124:|!	=124:|!	=124:|!	=124:|!	=124:|!	=124:|!
*>E	*>E	*	*	*>E	*	*	*
!	!LO:TX:b:t=ra-len-:dur=12e:ext=ud:problem=text with extention lines	!	!	!	!	!	!
4.c 4.A 4.D\	8dd 8f#\	.	8r	.	.	.	.
!	!LO:TX:t=P:problem=mixed beam	!	!	!	!	!	!
.	8d/L	.	8d/	po	.	.	.
.	8dd\J	.	8d/	śnie-	.	.	.
=125	=125	=125	=125	=125	=125	=125	=125
4.B 4.G\	8g/	.	[<4.d/	-żys-	.	.	.
.	(16cc\LL	.	.	.	.	.	.
.	16b\	.	.	.	.	.	.
.	16a\	.	.	.	.	.	.
.	16g\JJ)	.	.	.	.	.	.
=126	=126	=126	=126	=126	=126	=126	=126
4.c 4.A 4.D\	8dd 8f#\	.	8d/]	.	.	.	.
!	!LO:TX:t=P:problem=mixed beam	!	!	!	!	!	!
.	8d/L	.	8d/	-tej	.	.	.
.	8dd\J	.	8d/	za-	.	.	.
=127	=127	=127	=127	=127	=127	=127	=127
*^	*	*	*	*	*	*	*
4.B/	[<4.D [<4.GG\	8g/	.	4g/	-mie-	.	.	.
.	.	(16cc\LL	.	.	.	.	.	.
.	.	16b\	.	.	.	.	.	.
.	.	16a\	.	8d/	-ći	.	.	.
.	.	16g\JJ)	.	.	.	.	.	.
!!LO:LB:g=original
=128	=128	=128	=128	=128	=128	=128	=128	=128
!	!LO:TX:a:t=P:problem=jedna ligatura kończy się skierowana w górę	!	!	!	!	!	!	!
8c/	4.D_> 4.GG\_<	4.f#/	.	8r	.	.	.	.
(<16d/L	.	.	.	8d/	do	.	.	.
16c/	.	.	.	.	.	.	.	.
16B/	.	.	.	8d/	wsi	.	.	.
16A/J)	.	.	.	.	.	.	.	.
=129	=129	=129	=129	=129	=129	=129	=129	=129
4.B/	4.D_> 4.GG\_<	8g/	.	[>4.d/	zbroj-	.	.	.
.	.	(<16cc/LL	.	.	.	.	.	.
.	.	16b/	.	.	.	.	.	.
.	.	16a/	.	.	.	.	.	.
.	.	16g/JJ)	.	.	.	.	.	.
=130	=130	=130	=130	=130	=130	=130	=130	=130
8c/	4.D] 4.GG\]	8f#/L	.	8d/]	.	.	.	.
16d/L	.	8.dd/	.	8d/	-ny	.	.	.
16c/	.	.	.	.	.	.	.	.
16B/	.	.	.	8d/	mąż	.	.	.
16A/J	.	16f#/Jk	.	.	.	.	.	.
=131	=131	=131	=131	=131	=131	=131	=131	=131
[>4.G/	[<4.GG\	8g/L	.	8g/L	le-	.	.	.
.	.	8f#/	.	8a/	.	.	.	.
.	.	8g/J	.	8b/J	-ci,	.	.	.
=132	=132	=132	=132	=132	=132	=132	=132	=132
*	*	*^	*	*	*	*	*	*
(<4.G/]	4.GG\_<	(<8cc/L	4.e\	.	4cc\	a	.	.	.
.	.	8dd/	.	.	.	.	.	.	.
.	.	8cc/J	.	.	8cc\	pod	.	.	.
=133	=133	=133	=133	=133	=133	=133	=133	=133	=133
4.F#/	4.GG\_<	8b/L	4.d\	.	8b\	bur-	.	.	.
.	.	8cc/	.	.	8cc\	-ką,	.	.	.
.	.	8b/J	.	.	8b\	wiel-	.	.	.
=134	=134	=134	=134	=134	=134	=134	=134	=134	=134
(>4E/	4.GG\_<	8a/L	4.c\	.	8a/	-kie-	.	.	.
.	.	8b/	.	.	8g#X/	-go	.	.	.
8F#/)	.	8a/J	.	.	8a/	coś	.	.	.
=135	=135	=135	=135	=135	=135	=135	=135	=135	=135
!	!	!	!	!	!LO:TX:a:t=P:: „cho-wa”:problem=takt poprawiony przez głównego skryptora; przed poprawieniem było&colon; „4dd 8g”, a pod nutami sylaby	!	!	!	!
(<8G/L)	4.GG\_<	8g/L)	4B\	.	4.dd\	cho-	.	.	.
8F#/	.	8a/	.	.	.	.	.	.	.
8Fn/J)	.	8b/J	8r	.	.	.	.	.	.
=136	=136	=136	=136	=136	=136	=136	=136	=136	=136
(<4E/	4.GG\_<	(>8cc/L	(<4g\	.	8g/	-wa	.	.	.
!	!	!	!	!	!LO:TX:a:t=P:problem=tekst w t. 136-139 poprawiony przez głównego skryptora	!	!	!	!
.	.	8dd/	.	.	8g/	bur-	.	.	.
8D#X/	.	8cc/J	8f#\	.	8f#/	-ka	.	.	.
=137	=137	=137	=137	=137	=137	=137	=137	=137	=137
4Dn/	4.GG\_<	8b/L	4.fn 4.d\	.	8fn/	peł-	.	.	.
.	.	8cc/	.	.	8e/	-na	.	.	.
8G#X/	.	8b/J	.	.	8d/	zdo-	.	.	.
=138	=138	=138	=138	=138	=138	=138	=138	=138	=138
(>4A/	4.GG\]	8a/L	4e 4c#X\	.	8c#X/	-by-	.	.	.
.	.	8b/	.	.	8e/	-czy	.	.	.
8D/))	.	8a/J)	8f# 8cn\)	.	8d/	tam	.	.	.
*	*	*v	*v	*	*	*	*	*	*
!!LO:PB:g=original
=139	=139	=139	=139	=139	=139	=139	=139	=139
(>4.B/	[<4.D [<4.GG\	8g/	.	4g/	wie-	.	.	.
.	.	(<16a/LL	.	.	.	.	.	.
.	.	16g/	.	.	.	.	.	.
.	.	16f#/	.	8G/	-le	.	.	.
.	.	16e/JJ)	.	.	.	.	.	.
=140	=140	=140	=140	=140	=140	=140	=140	=140
4.c/	4.D_< 4.GG\_<	8d/	.	8r	.	.	.	.
!	!	!	!	!LO:TX:a:t=P:problem=takty 140-142 poprawione przez głównego skryptora	!	!	!	!
.	.	(>16dd\LL	.	8d/	lecz	.	.	.
.	.	16cc\	.	.	.	.	.	.
.	.	16b\	.	8d/	nim	.	.	.
.	.	16a\JJ)	.	.	.	.	.	.
=141	=141	=141	=141	=141	=141	=141	=141	=141
4.B/	4.D_< 4.GG\_<	8g/	.	[>4.d/	zdo-	.	.	.
.	.	(<16a/LL	.	.	.	.	.	.
.	.	16g/	.	.	.	.	.	.
.	.	16f#/	.	.	.	.	.	.
.	.	16e/JJ)	.	.	.	.	.	.
=142	=142	=142	=142	=142	=142	=142	=142	=142
4.c/	4.D_< 4.GG\_<	8d/	.	8d/]	.	.	.	.
.	.	(>16dd\LL	.	8d/	-bycz	.	.	.
.	.	16cc\	.	.	.	.	.	.
.	.	16b\	.	8d/	po-	.	.	.
.	.	16a\JJ)	.	.	.	.	.	.
=143	=143	=143	=143	=143	=143	=143	=143	=143
4.B/	4.D_< 4.GG\_<	8g\	.	8.g/L	-ka-	.	.	.
.	.	(<16b/LL	.	.	.	.	.	.
.	.	16a/	.	16a/Jk	.	.	.	.
.	.	16g/	.	8b/	-zał	.	.	.
.	.	16f#/JJ)	.	.	.	.	.	.
=144	=144	=144	=144	=144	=144	=144	=144	=144
8c/)	4.D_> 4.GG\_<	(<4e/	.	4cc\	sta-	.	.	.
(<16d/LL	.	.	.	.	.	.	.	.
16c/	.	.	.	.	.	.	.	.
16B/	.	8f#/)	.	8f#/	-ry	.	.	.
16A/JJ)	.	.	.	.	.	.	.	.
=145	=145	=145	=145	=145	=145	=145	=145	=145
4.G/	4.D_> 4.GG\_<	8g/	.	8g/	Bu-	.	.	.
.	.	(<16b/LL	.	8b/	-drys	.	.	.
.	.	16a/	.	.	.	.	.	.
.	.	16g/	.	8g/	już	.	.	.
.	.	16f#/JJ)	.	.	.	.	.	.
=146	=146	=146	=146	=146	=146	=146	=146	=146
8c/	4.D] 4.GG\]	(<4e/	.	4a/	ka-	.	.	.
(<16d/LL	.	.	.	.	.	.	.	.
16c/	.	.	.	.	.	.	.	.
16B/	.	8f#/)	.	8d/	-zał	.	.	.
16A/JJ)	.	.	.	.	.	.	.	.
*v	*v	*	*	*	*	*	*	*
=147	=147	=147	=147	=147	=147	=147	=147
4G 4GG/	8r	.	8d/L	pro-	.	.	.
.	8gL 8d 8B/	.	8b/J	.	.	.	.
8r	8gJ 8d 8B/	.	8a/	-sić	.	.	.
=148	=148	=148	=148	=148	=148	=148	=148
.	.	.	8qa/	.	.	.	.
4G\	8r	.	8g/L	goś-	.	.	.
.	8gL 8d 8B/	.	8f#/J	.	.	.	.
8r	8gJ 8d 8B/	.	8g/	-ci,	.	.	.
!!LO:LB:g=original
=149	=149	=149	=149	=149	=149	=149	=149
!	!	!	!LO:TX:t=P:problem=mixed beam	!	!	!	!
4F#\	8r	.	8d/L	pro-	.	.	.
.	8aL 8d 8c/	.	8cc\J	.	.	.	.
8r	8aJ 8d 8c/	.	8b\	-sić	.	.	.
=150	=150	=150	=150	=150	=150	=150	=150
.	.	.	(<8qb/	.	.	.	.
4D\	8r	.	8a/L)	goś-	.	.	.
.	8aL 8f# 8c/	.	8g#X/J	.	.	.	.
8r	8aJ 8f# 8c/	.	8a/	-ci	.	.	.
=151	=151	=151	=151	=151	=151	=151	=151
4G\	8r	.	8b/	pro-	.	.	.
.	8bL 8d 8B/	.	8a/	-sić	.	.	.
8r	8bJ 8d 8B/	.	8b/	na	.	.	.
=152	=152	=152	=152	=152	=152	=152	=152
4C/	8r	.	8dd\	trze-	.	.	.
.	8aL 8e 8c/	.	8cc\	-cie	.	.	.
8r	8aJ 8e 8c/	.	8a\	we-	.	.	.
=153	=153	=153	=153	=153	=153	=153	=153
*tremolo	*tremolo	*	*	*	*	*	*
8DL 8DD/	8gL 8d 8B/	.	(>4.g/	-se-	.	.	.
!	!	!LO:HP:a	!	!	!	!	!
8D 8DD/	8g 8d 8B/	<	.	.	.	.	.
8DJ 8DD/	8gJ 8d 8B/	.	.	.	.	.	.
*Xtremolo	*Xtremolo	*	*	*	*	*	*
=154	=154	=154	=154	=154	=154	=154	=154
*tremolo	*tremolo	*	*	*	*	*	*
8D#XL 8DD#y/	8gL 8c#X 8A#X/	.	[>4.gg\)	.	.	.	.
8D# 8DD#/	8g 8c# 8A#/	.	.	.	.	.	.
8D#J 8DD#/	8gJ 8c# 8A#/	[	.	.	.	.	.
*Xtremolo	*Xtremolo	*	*	*	*	*	*
=155	=155	=155	=155	=155	=155	=155	=155
*tremolo	*tremolo	*	*	*	*	*	*
!	!LO:TX:a:t=P:problem=takt poprawiony przez głównego skryptora	!	!	!	!	!	!
8DL 8DD/	8gL 8d 8B/	.	8gg\L]	.	.	.	.
8D 8DD/	8g 8d 8B/	.	8ff#\	.	.	.	.
8DJ 8DD/	8gJ 8d 8B/	.	8gg\J	.	.	.	.
*Xtremolo	*Xtremolo	*	*	*	*	*	*
=156	=156	=156	=156	=156	=156	=156	=156
*tremolo	*tremolo	*	*	*	*	*	*
8DL 8DD/	8gL 8d 8B/	.	8dd\	-le,	.	.	.
8D 8DD/	8g 8d 8B/	.	8b/	na	.	.	.
8DJ 8DD/	8gJ 8d 8B/	>	8g/	we-	.	.	.
*Xtremolo	*Xtremolo	*	*	*	*	*	*
=157	=157	=157	=157	=157	=157	=157	=157
*tremolo	*tremolo	*	*	*	*	*	*
8DL 8DD/	8aL 8g 8c/	.	[>4.ee\	-se-	.	.	.
8D 8DD/	8a 8g 8c/	.	.	.	.	.	.
8DJ 8DD/	8aJ 8g 8c/	.	.	.	.	.	.
*Xtremolo	*Xtremolo	*	*	*	*	*	*
=158	=158	=158	=158	=158	=158	=158	=158
*tremolo	*tremolo	*	*	*	*	*	*
8DL 8DD/	8aL 8f# 8c/	.	4.ee\_>	.	.	.	.
8D 8DD/	8a 8f# 8c/	.	.	.	.	.	.
8DJ 8DD/	8aJ 8f# 8c/	]	.	.	.	.	.
*Xtremolo	*Xtremolo	*	*	*	*	*	*
!!LO:LB:g=original
=159	=159	=159	=159	=159	=159	=159	=159
*tremolo	*tremolo	*	*	*	*	*	*
8DL 8DD/	8aL 8e 8c/	.	(>4.ee\]	.	.	.	.
8D 8DD/	8a 8e 8c/	.	.	.	.	.	.
8DJ 8DD/	8aJ 8e 8c/	.	.	.	.	.	.
*Xtremolo	*Xtremolo	*	*	*	*	*	*
=160	=160	=160	=160	=160	=160	=160	=160
*tremolo	*tremolo	*	*	*	*	*	*
8DL 8DD/	8aL 8f# 8c/	.	4.cc\)	.	.	.	.
8D 8DD/	8a 8f# 8c/	.	.	.	.	.	.
8DJ 8DD/	8aJ 8f# 8c/	.	.	.	.	.	.
*Xtremolo	*Xtremolo	*	*	*	*	*	*
=161||	=161||	=161||	=161||	=161||	=161||	=161||	=161||
*M4/4	*M4/4	*	*M4/4	*	*	*	*
*met(c)	*met(c)	*	*met(c)	*	*	*	*
8D 8GG/	8g 8B/	.	4g/	-le.	.	.	.
!	!	!LO:DY:b:rj	!	!	!	!	!
(<8e-XL 8E-y\	(>16ee-X\LL	ff	.	.	.	.	.
.	16eee-y\JJ	.	.	.	.	.	.
8d 8D\	16dd\LL	.	4r	.	.	.	.
.	16ddd\	.	.	.	.	.	.
8c#XJ 8C#y\	16cc#X\	.	.	.	.	.	.
.	16ccc#y\JJ	.	.	.	.	.	.
8B-XL 8BB-y\	16b-X\LL	.	2r	.	.	.	.
.	16bb-y\	.	.	.	.	.	.
8A 8AA\	16a\	.	.	.	.	.	.
.	16aa\JJ	.	.	.	.	.	.
8G 8GG\	16g\LL	.	.	.	.	.	.
.	16gg\	.	.	.	.	.	.
8F#J 8FF#\	16f#\	.	.	.	.	.	.
.	16ff#\JJ	.	.	.	.	.	.
=162	=162	=162	=162	=162	=162	=162	=162
8E-XL 8EE-y/	16e-X/LL	.	1r	.	.	.	.
.	16ee-y/	.	.	.	.	.	.
8D 8DD/	16d/	.	.	.	.	.	.
.	16dd/JJ	.	.	.	.	.	.
!	!LO:TX:t=P:problem=mixed beam	!	!	!	!	!	!
8C#X 8CC#y/	16c#X/LL	.	.	.	.	.	.
.	16cc#y\	.	.	.	.	.	.
8BB-XJ 8BBB-y/	16B/	.	.	.	.	.	.
.	16b\JJ	.	.	.	.	.	.
!	!LO:TX:t=P:problem=mixed beam	!	!	!	!	!	!
8AAL 8AAA/	16A</LL	.	.	.	.	.	.
.	16a\	.	.	.	.	.	.
8GG 8GGG/	16G</	.	.	.	.	.	.
.	16g\JJ	.	.	.	.	.	.
!	!LO:TX:t=P:problem=mixed beam	!	!	!	!	!	!
8FF# 8FFF#/	16F#</LL	.	.	.	.	.	.
.	16f#\	.	.	.	.	.	.
8EE-J 8EEE-y/)	16E-X</	.	.	.	.	.	.
.	16e-\JJ)	.	.	.	.	.	.
=163	=163	=163	=163	=163	=163	=163	=163
*8ba	*	*	*	*	*	*	*
!LO:TX:b:t=P:problem=przenośnik oktawowy na dole	!	!	!	!	!	!	!
8DD/ 8DDD/	8D</	.	1r	.	.	.	.
*X8ba	*	*	*	*	*	*	*
8r	8r	.	.	.	.	.	.
8.B-XL 8.G 8.D\	(>16cc\LL	.	.	.	.	.	.
.	16b-X\	.	.	.	.	.	.
.	16a\	.	.	.	.	.	.
16B-Jk 16G 16D\	16g\JJ)	.	.	.	.	.	.
8B- 8G 8D\	8dd`>\	.	.	.	.	.	.
8r	8r	.	.	.	.	.	.
8.cL 8.D\	8.ff#L 8.a\	.	.	.	.	.	.
16cJk 16D\	16ff#Jk 16a\	.	.	.	.	.	.
=164	=164	=164	=164	=164	=164	=164	=164
4B-X 4G\	4gg 4b-X 4g\	.	2r	.	.	.	.
8.GGL 8.GGG/	8.G/L	.	.	.	.	.	.
16GGJk 16GGG/	16G/Jk	.	.	.	.	.	.
4GG 4GGG/	4G/	.	4r	.	.	.	.
==	==	==	==	==	==	==	==
*-	*-	*-	*-	*-	*-	*-	*-
!!!system-decoration: {(s1),(s2,s3)}
!!!RDF**kern: > = above
!!!RDF**kern: < = below
!!!RDF**dynam: > = "diminuendo"
!!!EED: Antoni Szymański
!!!EST: 2021-04-21
!!!ENC: Andrzej Gręziak
!!!END: 2021-04-06
